src/asset/cabinet/crypto/BTC.svg

<svg width="56" height="56" viewBox="0 0 56 56" fill="none" xmlns="http://www.w3.org/2000/svg">
<g filter="url(#filter0_d)">
<rect x="8" y="4" width="40" height="40" rx="20" fill="url(#paint0_linear)"/>
</g>
<path d="M35.9574 28.6769C36.1175 27.6265 35.8374 26.7161 35.1271 25.9658C34.807 25.6057 34.3968 25.3456 34.0066 25.0154C34.0767 24.9954 34.1267 24.9654 34.1667 24.9554C36.6977 24.4752 37.4781 21.0338 36.2175 19.4131C35.6973 18.7528 35.0771 18.2526 34.3568 17.8624C33.8466 17.5923 33.3363 17.3422 32.7961 17.0821C33.0762 16.1117 33.4964 14.7511 33.8065 13.6707L31.7657 13.0805C31.4356 14.1409 31.0554 15.4714 30.7553 16.4118L29.1146 15.9316C29.4047 14.9612 29.8049 13.6607 30.105 12.6003L28.0541 12C27.744 13.0805 27.3338 14.421 26.9837 15.3314C25.5831 14.9012 24.2225 14.511 22.842 14.0909C22.6219 14.8412 22.4018 15.5415 22.1917 16.2718C22.4818 16.3818 22.7419 16.4519 23.012 16.5319C23.2721 16.6119 23.5323 16.682 23.7924 16.782C24.4827 17.0421 24.7428 17.5423 24.5427 18.2526C23.6723 21.1838 22.7819 24.105 21.8916 27.0263C21.7115 27.6665 21.3714 27.8466 20.7311 27.6665C20.7111 27.6565 20.7111 27.6565 20.7111 27.6565L19.3505 27.2564C18.9604 28.0567 18.6002 28.797 18.21 29.5773C19.6106 30.0075 20.9412 30.4077 22.3418 30.8379C22.0316 31.8983 21.6315 33.2288 21.3113 34.3293L23.3622 34.9296C23.7023 33.8291 24.0825 32.5286 24.4026 31.4981C24.9829 31.6682 25.5031 31.8383 26.0333 32.0083C25.7332 33.0588 25.333 34.3393 25.0229 35.3997L27.0737 36C27.4139 34.8995 27.784 33.609 28.0942 32.6086C28.1642 32.6286 28.2142 32.6186 28.2642 32.6386C29.3047 32.7586 30.3151 32.9687 31.3355 33.0088C32.6761 33.0688 33.8566 32.6486 34.7369 31.5682C35.4172 30.7378 35.8074 29.7474 35.9574 28.6769ZM28.4543 18.3727L29.5047 18.6728C30.4051 18.9329 31.2855 19.253 32.0158 19.8633C32.6861 20.4235 32.8762 21.1438 32.616 21.9041C32.3459 22.6945 31.7057 23.1446 30.8153 23.1647C29.9349 23.2147 29.0946 23.0246 28.2542 22.7845C27.9041 22.6845 27.5639 22.5644 27.2338 22.4644C27.634 21.1138 28.0241 19.7732 28.4543 18.3727ZM29.9149 29.8674C28.6444 30.0475 27.4339 29.6974 26.2334 29.3672L26.1634 29.3472C25.8432 29.2572 25.5331 29.1471 25.1929 29.0471C25.6531 27.5365 26.1033 26.0459 26.5635 24.5452L27.774 24.8954C28.9345 25.2355 30.035 25.6157 30.9453 26.386C31.5956 26.9162 31.8757 27.6265 31.6356 28.4869C31.3855 29.3372 30.7653 29.7474 29.9149 29.8674Z" fill="white"/>
<defs>
<filter id="filter0_d" x="0" y="0" width="56" height="56" filterUnits="userSpaceOnUse" color-interpolation-filters="sRGB">
<feFlood flood-opacity="0" result="BackgroundImageFix"/>
<feColorMatrix in="SourceAlpha" type="matrix" values="0 0 0 0 0 0 0 0 0 0 0 0 0 0 0 0 0 0 127 0"/>
<feOffset dy="4"/>
<feGaussianBlur stdDeviation="4"/>
<feColorMatrix type="matrix" values="0 0 0 0 0.968627 0 0 0 0 0.694118 0 0 0 0 0.266667 0 0 0 0.3 0"/>
<feBlend mode="normal" in2="BackgroundImageFix" result="effect1_dropShadow"/>
<feBlend mode="normal" in="SourceGraphic" in2="effect1_dropShadow" result="shape"/>
</filter>
<linearGradient id="paint0_linear" x1="48" y1="4" x2="8" y2="44" gradientUnits="userSpaceOnUse">
<stop stop-color="#F7B73B"/>
<stop offset="1" stop-color="#F8A15D"/>
</linearGradient>
</defs>
</svg>

<svg width="56" height="56" fill="none" xmlns="http://www.w3.org/2000/svg"><g filter="url(#filter0_d)"><rect x="8" y="4" width="40" height="40" rx="20" fill="url(#paint0_linear)"/></g><path d="M35.957 28.677c.16-1.05-.12-1.96-.83-2.711-.32-.36-.73-.62-1.12-.95.07-.02.12-.05.16-.06 2.53-.48 3.311-3.922 2.05-5.543a5.89 5.89 0 00-1.86-1.55c-.51-.27-1.02-.52-1.56-.78.28-.971.7-2.332 1.01-3.412l-2.041-.59c-.33 1.06-.71 2.39-1.01 3.33l-1.641-.48c.29-.97.69-2.27.99-3.33L28.055 12c-.311 1.08-.721 2.421-1.071 3.331-1.4-.43-2.762-.82-4.142-1.24-.22.75-.44 1.45-.65 2.18.29.11.55.18.82.26.26.08.52.151.78.251.69.26.95.76.75 1.47-.87 2.932-1.76 5.853-2.65 8.774-.18.64-.52.82-1.16.64l-.02-.01-1.361-.4c-.39.8-.75 1.541-1.141 2.321 1.4.43 2.731.83 4.132 1.26-.31 1.061-.71 2.392-1.03 3.492l2.05.6c.34-1.1.72-2.4 1.04-3.43.58.17 1.101.34 1.631.51-.3 1.05-.7 2.33-1.01 3.39l2.05.601c.34-1.1.711-2.391 1.021-3.391.07.02.12.01.17.03 1.04.12 2.051.33 3.072.37 1.34.06 2.52-.36 3.4-1.44.681-.831 1.071-1.822 1.221-2.892zm-7.503-10.304l1.05.3c.901.26 1.781.58 2.512 1.19.67.56.86 1.28.6 2.041-.27.79-.91 1.24-1.8 1.26-.881.05-1.721-.14-2.562-.38-.35-.1-.69-.22-1.02-.32.4-1.35.79-2.69 1.22-4.091zm1.46 11.494c-1.27.18-2.48-.17-3.68-.5l-.07-.02c-.32-.09-.63-.2-.971-.3.46-1.51.91-3.001 1.37-4.502l1.211.35c1.16.34 2.261.72 3.171 1.491.65.53.93 1.24.69 2.1-.25.851-.87 1.261-1.72 1.381z" fill="#fff"/><defs><linearGradient id="paint0_linear" x1="48" y1="4" x2="8" y2="44" gradientUnits="userSpaceOnUse"><stop stop-color="#F7B73B"/><stop offset="1" stop-color="#F8A15D"/></linearGradient><filter id="filter0_d" x="0" y="0" width="56" height="56" filterUnits="userSpaceOnUse" color-interpolation-filters="sRGB"><feFlood flood-opacity="0" result="BackgroundImageFix"/><feColorMatrix in="SourceAlpha" values="0 0 0 0 0 0 0 0 0 0 0 0 0 0 0 0 0 0 127 0"/><feOffset dy="4"/><feGaussianBlur stdDeviation="4"/><feColorMatrix values="0 0 0 0 0.968627 0 0 0 0 0.694118 0 0 0 0 0.266667 0 0 0 0.3 0"/><feBlend in2="BackgroundImageFix" result="effect1_dropShadow"/><feBlend in="SourceGraphic" in2="effect1_dropShadow" result="shape"/></filter></defs></svg>
